X:206
M:none
L:1/4
K:F
F3/2 G/ A B A G | (A3/2 G/) F4 | A B c d (c A3/2) B/ | c4 | d3/2 e/ f c c B | (A3/2 G/) F4 | D3/2 E/ F G (F D3/2) E/ | F4 | F3/2 G/ A B A G | c2 d4 | (c A) B (c F3/2) E/ D E | (F3/2 D/ C2) z2 | F3/2 G/ A c A F | (G2 F4) |]
